assets/images/right.svg

<svg fill="none" height="105" viewBox="0 0 105 105" width="105" xmlns="http://www.w3.org/2000/svg"><path clip-rule="evenodd" d="m43.6173 32.6798c1.2814-1.2814 3.359-1.2814 4.6404 0l17.5 17.5c1.2814 1.2814 1.2814 3.359 0 4.6404l-17.5 17.5c-1.2814 1.2814-3.359 1.2814-4.6404 0s-1.2814-3.359 0-4.6404l15.1798-15.1798-15.1798-15.1798c-1.2814-1.2814-1.2814-3.359 0-4.6404z" fill="#6c6a61" fill-rule="evenodd"/></svg>

<svg width="105" height="105" viewBox="0 0 105 105" fill="none" xmlns="http://www.w3.org/2000/svg">
<path fill-rule="evenodd" clip-rule="evenodd" d="M43.6173 32.6798C44.8987 31.3984 46.9763 31.3984 48.2577 32.6798L65.7577 50.1798C67.0391 51.4612 67.0391 53.5388 65.7577 54.8202L48.2577 72.3202C46.9763 73.6016 44.8987 73.6016 43.6173 72.3202C42.3359 71.0388 42.3359 68.9612 43.6173 67.6798L58.7971 52.5L43.6173 37.3202C42.3359 36.0388 42.3359 33.9612 43.6173 32.6798Z" fill="#6C6A61"/>
</svg>
